X:353
T:Princess Charlotte,The.2voices RH.353
R:Waltz
S:Rev.R.Harrison’s MS,c1815,Cumbria
N:Note “Composed by Her Royal Highness” in MS.
O:England
A:Temple Sowerby,Cumbria
Z:vmp.Simon Wilson. Review PJH, 2008.
M:3/4
L:1/8
Q:3/4=50
K:C
(gb)|c’2(e’c’)g2|e2(ge)c2|\
B((3c/B/^A/) Bcde|fg^ga^ab|\
.c’2(e’c’)g2|.e2(ge)c2|\
(dG) (fG) (BG)|c2z2:|!
|:G2|[G3e3] [Fd][Fc]A|[FA]>[EG] ([FG]c)([FG]c)|\
[FA]>[FA] ([FA]c) ([FA]c)|[EG]>[EG] [E2G2]g2|\
(e’/d’/c’/b/) (a/g/f/e/) (d/c/B/A/)|G>GG2f2|\
ec [cg]e [Fd]B|[E2c2]z2:|!
|:[E2G2]|[E3G3][FA][EG][DF]|E2G2c2|\
A2[A2f2][A2d2]|[D2c2]B2G2|\
[c3g3]f[c2e2]|[A2f2]A2[A2d2]|\
[Dc]BAGAB|[E2c2]z2:|

